!!!!SEGMENT: pl-cz--iii-332--001-002_just-franciszek-kasper--dixit-dominus-virgam-virtutis-tuae.krn
!!!cenid: 17xx:907
!!!COM: Just, Franciszek Kasper
!!!COM-rismID: pe30098311
!!!CDT: 1717-1760
!!!CNT: Czech
!!!OPR: Dixit Dominus
!!!OTL: Virgam virtutis tuae
!!!OMV: 002
!!!PDT:
!!!AGN: Sacred
!!!YEC: Copyright 2022 Narodowy Instytut Fryderyka Chopina (https://polishscores.org)
!!!YEM: License CC-BY-4.0 (https://creativecommons.org/licenses/by/4.0)
!!!SMS-siglum: PL-CZ
!!!SMS-shelfmark: III-332
!!!SMS-shelfwork: 001-002 M
!!!SMS-variant:
!!!SMS-altvar:
!!!NIFC-rismSourceID: 300000542
!!!NIFC-rismChildID: 300000542
!!!NIFC-islandoraID: pl-cz:37699
!!!URL-pdf-islandora: https://repozytorium.nifc.pl/islandora/object/pl-cz%3A37699/datastream/PDF/view
!!!URL-scan: https://polish.musicsources.pl/pl/lokalizacje/galeria/rekopisy/6905/1 @EN{Scan on Polish Music Sources Website} @PL{Skany w portalu Dziedzictwo Muzyki Polskiej w otwartym dostępie}
!!!IIIF:
!!!ONB-nifc: UWAGA: części Dixit Dominus: Dixit Dominus, Virgam virtutis tuae, Dominare in medio, Tecum principium, Juravit Dominus, Tu es sacerdos, Dominus a dextris, Judicabit in nationibus, De torrente, Gloria patri
!!!AIN: 1 alto 2 bass 2 clrno 1 oboe 1 soprn 1 tenor 2 violn
!!!key: G
**kern	**dynam	**fb	**kern	**dynam	**kern	**dynam	**kern	**kern	**kern	**text	**kern	**kern	**kern	**kern	**kern
*group	*group	*	*group3	*	*group3	*	*group2	*group2	*group2	*	*group2	*group2	*group1	*group1	*group
*part11	*	*	*part10	*	*part9	*	*part8	*part7	*part6	*	*part5	*part4	*part3	*part2	*part1
*staff11	*	*	*staff10	*	*staff9	*	*staff8	*staff7	*staff6	*	*staff5	*staff4	*staff3	*staff2	*staff1
*I"Fundamento.	*	*	*I"Violino Secundo.	*	*I"Violino Primo.	*	*I"Basso Secundo.	*I"Basso.	*I"Tenore	*	*I"Alto.	*I"Canto.	*I"Clarino 2do.	*I"Clarino Primo ex D.	*I"Oboa Solo.
*I'fund	*	*	*I'vl 2	*	*I'vl 1	*	*I'B 2	*I'B 1	*I'T	*	*I'A	*I'S	*I'clno 2	*I'clno 1	*I'ob
*	*	*	*Ivioln	*	*Ivioln	*	*Ibass	*Ibass	*Itenor	*	*Ialto	*Isoprn	*Iclrno	*Iclrno	*Ioboe
*	*	*	*ICstr	*	*ICstr	*	*ICvox	*ICvox	*ICvox	*	*ICvox	*ICvox	*ICbras	*ICbras	*ICww
*clefF4	*	*	*clefG2	*	*clefG2	*	*clefF4	*clefF4	*clefC4	*	*clefC3	*clefC1	*clefG2	*clefG2	*clefG2
*	*	*	*	*	*	*	*	*	*	*	*	*	*ITrd-1c-2	*ITrd-1c-2	*
*k[f#]	*	*	*k[f#]	*	*k[f#]	*	*k[f#]	*k[f#]	*k[f#]	*	*k[f#]	*k[f#]	*k[f#]	*k[f#]	*k[f#]
*G:	*	*	*G:	*	*G:	*	*G:	*G:	*G:	*	*G:	*G:	*G:	*G:	*G:
*M2/4	*	*	*M2/4	*	*M2/4	*	*M2/4	*M2/4	*M2/4	*	*M2/4	*M2/4	*M2/4	*M2/4	*M2/4
*	*	*above	*	*	*	*	*	*	*	*	*	*	*	*	*
!	!	!	!LO:TX:t=P:problem=przy kluczu jeszcze kasownik c odnoszący się do poprzedniej tonacji D	!	!LO:TX:t=P:problem=przy kluczu jeszcze kasownik c odnoszący się do poprzedniej tonacji D	!	!	!	!	!	!	!	!	!	!
!LO:TX:t=P:problem=przy kluczu jeszcze kasownik c odnoszący się do poprzedniej tonacji D	!	!	!	!LO:DY:a	!	!LO:DY:a	!	!	!LO:TX:t=P:problem=przy kluczu jeszcze kasownik c odnoszący się do poprzedniej tonacji D	!	!	!	!LO:TX:a:i:t=Virg(inam) Virtutis \ntacet	!LO:TX:a:i:t=Virginam Virtutis \ntacet	!
!LO:TX:a:i:t=andante	!	!	!LO:TX:a:i:t=andante	!	!LO:TX:b:i:t=Virginam virtutis	!	!	!LO:TX:a:i:t=Virg(inam) Virtutis \ntacet.	!	!	!LO:TX:a:i:t=Virginam Virtutis tacet	!LO:TX:a:i:t=Virginam Virtutis tacet	!	!	!
!LO:TX:b:i:t=Virgam Virtutis	!	!	!LO:TX:b:i:t=Virgam	!LO:DY:a:t=f.:rj	!	!LO:DY:a:rj:t=f.	!	!	!	!	!	!	!	!	!
8r	.	.	8dd\	f	8dd\	f	8ryy	8ryy	8r	.	8ryy	8ryy	8ryy	8ryy	8ryy
=1	=1	=1	=1	=1	=1	=1	=1	=1	=1	=1	=1	=1	=1	=1	=1
!	!	!	!	!	!	!	!	!	!LO:TX:a:i:t=Solo	!	!	!	!	!	!
!	!	!	!	!	!	!	!	!	!LO:TX:b:t=19.	!	!	!	!	!	!
8G\L	.	.	4b\	.	4gg\	.	2ryy	2ryy	0r	.	2ryy	2ryy	2ryy	2ryy	2ryy
8B\	.	.	.	.	.	.	.	.	.	.	.	.	.	.	.
8c\	.	.	16dd\LL	.	16bb\LL	.	.	.	.	.	.	.	.	.	.
.	.	.	16cc\	.	16aa\	.	.	.	.	.	.	.	.	.	.
8d\J	.	.	16b\	.	16gg\	.	.	.	.	.	.	.	.	.	.
.	.	.	16a\JJ	.	16ff#\JJ	.	.	.	.	.	.	.	.	.	.
=2	=2	=2	=2	=2	=2	=2	=2	=2	=2	=2	=2	=2	=2	=2	=2
8G\L	.	.	8b/L	.	8gg\	.	2ryy	2ryy	.	.	2ryy	2ryy	2ryy	2ryy	2ryy
8G\	.	.	16g/L	.	4dd\	.	.	.	.	.	.	.	.	.	.
.	.	.	16a/JJ	.	.	.	.	.	.	.	.	.	.	.	.
8B\	.	.	8b\L	.	.	.	.	.	.	.	.	.	.	.	.
8d\J	.	.	8dd\J	.	8dd\	.	.	.	.	.	.	.	.	.	.
=3	=3	=3	=3	=3	=3	=3	=3	=3	=3	=3	=3	=3	=3	=3	=3
16e\LL	.	.	16ee\LL	.	16ee\LL	.	2ryy	2ryy	.	.	2ryy	2ryy	2ryy	2ryy	2ryy
16c\JJ	.	.	16cc\JJ	.	16cc\JJ	.	.	.	.	.	.	.	.	.	.
4A\	.	.	4a/	.	4a/	.	.	.	.	.	.	.	.	.	.
8d\	.	.	8dd\	.	8cc\	.	.	.	.	.	.	.	.	.	.
=4	=4	=4	=4	=4	=4	=4	=4	=4	=4	=4	=4	=4	=4	=4	=4
16B\LL	.	.	8b/L	.	16b/LL	.	2ryy	2ryy	.	.	2ryy	2ryy	2ryy	2ryy	2ryy
16A\J	.	.	.	.	16a/J	.	.	.	.	.	.	.	.	.	.
8G\J	.	.	16a/L	.	8g/J	.	.	.	.	.	.	.	.	.	.
.	.	.	16g/JJ	.	.	.	.	.	.	.	.	.	.	.	.
8BB/L	.	.	8r	.	8r	.	.	.	.	.	.	.	.	.	.
8GG/J	.	.	8dd\	.	8dd\	.	.	.	.	.	.	.	.	.	.
=5	=5	=5	=5	=5	=5	=5	=5	=5	=5	=5	=5	=5	=5	=5	=5
8C/L	.	.	16cc\LL	.	16ee\LL	.	2ryy	2ryy	0r	.	2ryy	2ryy	2ryy	2ryy	2ryy
.	.	.	16g\	.	16cc\	.	.	.	.	.	.	.	.	.	.
8C/	.	.	16cc\	.	16g\	.	.	.	.	.	.	.	.	.	.
.	.	.	16ee\JJ	.	16e\JJ	.	.	.	.	.	.	.	.	.	.
!	!	!	!	!	!LO:TX:t=P:problem=mixed beam	!	!	!	!	!	!	!	!	!	!
8C/	.	.	8ee\L	.	8c/L	.	.	.	.	.	.	.	.	.	.
8C/J	.	.	8cc\J	.	8ee\J	.	.	.	.	.	.	.	.	.	.
=6	=6	=6	=6	=6	=6	=6	=6	=6	=6	=6	=6	=6	=6	=6	=6
8GG/L	.	.	16b/LL	.	16dd\LL	.	2ryy	2ryy	.	.	2ryy	2ryy	2ryy	2ryy	2ryy
.	.	.	16a/J	.	16cc\J	.	.	.	.	.	.	.	.	.	.
8GG/	.	.	8b/J	.	8dd\J	.	.	.	.	.	.	.	.	.	.
8GG/	.	.	8r	.	8r	.	.	.	.	.	.	.	.	.	.
8GG/J	.	.	8b/	.	8dd\	.	.	.	.	.	.	.	.	.	.
=7	=7	=7	=7	=7	=7	=7	=7	=7	=7	=7	=7	=7	=7	=7	=7
8D/L	.	.	16a/LL	.	16cc/LL	.	2ryy	2ryy	.	.	2ryy	2ryy	2ryy	2ryy	2ryy
.	.	.	16f#/	.	16a/	.	.	.	.	.	.	.	.	.	.
8D/	.	.	16d/	.	16f#/	.	.	.	.	.	.	.	.	.	.
.	.	.	16a/JJ	.	16d/JJ	.	.	.	.	.	.	.	.	.	.
8D/	.	.	8cc\L	.	8ff#\L	.	.	.	.	.	.	.	.	.	.
8D/J	.	.	8a\J	.	8aa\J	.	.	.	.	.	.	.	.	.	.
=8	=8	=8	=8	=8	=8	=8	=8	=8	=8	=8	=8	=8	=8	=8	=8
8G\L	.	.	16g/LL	.	16b/LL	.	2ryy	2ryy	.	.	2ryy	2ryy	2ryy	2ryy	2ryy
.	.	.	16f#/J	.	16a/J	.	.	.	.	.	.	.	.	.	.
8G\	.	.	8.g/J	.	8.b/J	.	.	.	.	.	.	.	.	.	.
8G\	.	.	.	.	.	.	.	.	.	.	.	.	.	.	.
.	.	.	16g/LL	.	16g\LL	.	.	.	.	.	.	.	.	.	.
8G\J	.	.	16b/	.	16b\	.	.	.	.	.	.	.	.	.	.
*	*	*	*	*	*custos:cc	*	*	*	*	*	*	*	*	*	*
.	.	.	16g/JJ	.	16dd\JJ	.	.	.	.	.	.	.	.	.	.
!	!	!	!LO:LB:g=original	!	!LO:LB:g=original	!	!	!	!	!	!	!	!	!	!
=9	=9	=9	=9	=9	=9	=9	=9	=9	=9	=9	=9	=9	=9	=9	=9
8C/L	.	.	16cc\LL	.	16cc\LL	.	2ryy	2ryy	0r	.	2ryy	2ryy	2ryy	2ryy	2ryy
.	.	.	16b\	.	16b\	.	.	.	.	.	.	.	.	.	.
8C/	.	.	16cc\	.	16cc\	.	.	.	.	.	.	.	.	.	.
.	.	.	16dd\JJ	.	16dd\JJ	.	.	.	.	.	.	.	.	.	.
!	!	!	!LO:TX:t=P:problem=mixed beam	!	!	!	!	!	!	!	!	!	!	!	!
8C/	.	.	8ee\L	.	8ee\L	.	.	.	.	.	.	.	.	.	.
8C/J	.	.	8e/J	.	8g\J	.	.	.	.	.	.	.	.	.	.
=10	=10	=10	=10	=10	=10	=10	=10	=10	=10	=10	=10	=10	=10	=10	=10
8D/L	.	.	(<16d/LL	.	16f#/LL	.	2ryy	2ryy	.	.	2ryy	2ryy	2ryy	2ryy	2ryy
.	.	.	16c/J)	.	16e/J	.	.	.	.	.	.	.	.	.	.
8D/	.	.	8d/J	.	8d/J	.	.	.	.	.	.	.	.	.	.
8D/	.	.	16r	.	16r	.	.	.	.	.	.	.	.	.	.
.	.	.	16d/LL	.	16d/LL	.	.	.	.	.	.	.	.	.	.
8D/J	.	.	16f#/	.	16f#/	.	.	.	.	.	.	.	.	.	.
.	.	.	16a/JJ	.	16a/JJ	.	.	.	.	.	.	.	.	.	.
!LO:LB:g=original	!	!	!	!	!	!	!	!	!	!	!	!	!	!	!
=11	=11	=11	=11	=11	=11	=11	=11	=11	=11	=11	=11	=11	=11	=11	=11
8G\L	.	.	8.bt\L	.	8.bt\L	.	2ryy	2ryy	.	.	2ryy	2ryy	2ryy	2ryy	2ryy
8D\	.	6 4	.	.	.	.	.	.	.	.	.	.	.	.	.
.	.	.	32a\LL	.	32a\LL	.	.	.	.	.	.	.	.	.	.
.	.	.	32b\JJJ	.	32b\JJJ	.	.	.	.	.	.	.	.	.	.
8A\	.	X 3_	8.ccT\L	.	8.ccT\L	.	.	.	.	.	.	.	.	.	.
8D\J	.	.	.	.	.	.	.	.	.	.	.	.	.	.	.
.	.	X X	32b\LL	.	32b\LL	.	.	.	.	.	.	.	.	.	.
.	.	.	32cc\JJJ	.	32cc\JJJ	.	.	.	.	.	.	.	.	.	.
=12	=12	=12	=12	=12	=12	=12	=12	=12	=12	=12	=12	=12	=12	=12	=12
8B\L	.	X 6_	8cc\L	.	8dd\L	.	2ryy	2ryy	.	.	2ryy	2ryy	2ryy	2ryy	2ryy
8D\	.	.	8gg\	.	8gg\	.	.	.	.	.	.	.	.	.	.
8A\	.	X X	8cc\	.	8cc\	.	.	.	.	.	.	.	.	.	.
8D\J	.	.	8aa\J	.	8aa\J	.	.	.	.	.	.	.	.	.	.
=13	=13	=13	=13	=13	=13	=13	=13	=13	=13	=13	=13	=13	=13	=13	=13
8G\L	.	.	8.bt\L	.	8.bt\L	.	2ryy	2ryy	0r	.	2ryy	2ryy	2ryy	2ryy	2ryy
8D\	.	.	.	.	.	.	.	.	.	.	.	.	.	.	.
.	.	.	32a\LL	.	32a\LL	.	.	.	.	.	.	.	.	.	.
.	.	.	32b\JJJ	.	32b\JJJ	.	.	.	.	.	.	.	.	.	.
8A\	.	.	8.ccT\L	.	8.ccT\L	.	.	.	.	.	.	.	.	.	.
8D\J	.	.	.	.	.	.	.	.	.	.	.	.	.	.	.
.	.	.	32b\LL	.	32b\LL	.	.	.	.	.	.	.	.	.	.
.	.	.	32cc\JJJ	.	32cc\JJJ	.	.	.	.	.	.	.	.	.	.
=14	=14	=14	=14	=14	=14	=14	=14	=14	=14	=14	=14	=14	=14	=14	=14
8B\L	.	6_ 3_	8dd\L	.	8dd\L	.	2ryy	2ryy	.	.	2ryy	2ryy	2ryy	2ryy	2ryy
8D\	.	.	8gg\	.	8gg\	.	.	.	.	.	.	.	.	.	.
8A\	.	X X	8cc\	.	8cc\	.	.	.	.	.	.	.	.	.	.
8D\J	.	.	8aa\J	.	8aa\J	.	.	.	.	.	.	.	.	.	.
=15	=15	=15	=15	=15	=15	=15	=15	=15	=15	=15	=15	=15	=15	=15	=15
8G\L	.	.	16b\LL	.	16b\LL	.	2ryy	2ryy	.	.	2ryy	2ryy	2ryy	2ryy	2ryy
.	.	.	16dd\	.	16dd\	.	.	.	.	.	.	.	.	.	.
8E\	.	.	16ee\	.	16ee\	.	.	.	.	.	.	.	.	.	.
.	.	.	16ff#\JJ	.	16ff#\JJ	.	.	.	.	.	.	.	.	.	.
!	!	!	!LO:TX:t=P:problem=mixed beam	!	!LO:TX:t=P:problem=mixed beam	!	!	!	!	!	!	!	!	!	!
8BB\	.	.	8gg\L	.	8gg\L	.	.	.	.	.	.	.	.	.	.
8C\J	.	.	8g/J	.	8g/J	.	.	.	.	.	.	.	.	.	.
=16	=16	=16	=16	=16	=16	=16	=16	=16	=16	=16	=16	=16	=16	=16	=16
8D/L	.	.	4d/	.	4d/	.	2ryy	2ryy	.	.	2ryy	2ryy	2ryy	2ryy	2ryy
8D/	.	.	.	.	.	.	.	.	.	.	.	.	.	.	.
8DD/	.	X -	4c/	.	4a/	.	.	.	.	.	.	.	.	.	.
8DD/J	.	X 7	.	.	.	.	.	.	.	.	.	.	.	.	.
=17	=17	=17	=17	=17	=17	=17	=17	=17	=17	=17	=17	=17	=17	=17	=17
8G\L	.	.	8ggL 8b 8d 8G/	.	8ggL 8b 8d 8G/	.	2ryy	2ryy	1r	.	2ryy	2ryy	2ryy	2ryy	2ryy
8D\J	.	6 4	8gg 8b 8d 8G/	.	8gg 8b 8d 8G/	.	.	.	.	.	.	.	.	.	.
8BB/L	.	.	8ggJ 8b 8d 8G/	.	8ggJ 8b 8d 8G/	.	.	.	.	.	.	.	.	.	.
8GG/J	.	.	8r	.	8r	.	.	.	.	.	.	.	.	.	.
=18	=18	=18	=18	=18	=18	=18	=18	=18	=18	=18	=18	=18	=18	=18	=18
!LO:TX:t=P:problem=mixed beam	!	!	!	!	!	!	!	!	!	!	!	!	!	!	!
8C\L	.	.	8e/L	.	8g/L	.	2ryy	2ryy	.	.	2ryy	2ryy	2ryy	2ryy	2ryy
8E\	.	.	8a/J	.	8cc/J	.	.	.	.	.	.	.	.	.	.
.	.	.	8qqg/	.	.	.	.	.	.	.	.	.	.	.	.
8D\	.	.	4f#/	.	4a/	.	.	.	.	.	.	.	.	.	.
8DD/J	.	.	.	.	.	.	.	.	.	.	.	.	.	.	.
!	!	!	!LO:LB:g=original	!	!	!	!	!	!	!	!	!	!	!	!
=19	=19	=19	=19	=19	=19	=19	=19	=19	=19	=19	=19	=19	=19	=19	=19
8GG/L	.	.	8g/L	.	8g/L	.	2ryy	2ryy	2r	.	2ryy	2ryy	2ryy	2ryy	2ryy
8D/J	.	.	8d/J	.	8d/J	.	.	.	.	.	.	.	.	.	.
4GG/	.	.	4G/	.	4G/	.	.	.	.	.	.	.	.	.	.
=20	=20	=20	=20	=20	=20	=20	=20	=20	=20	=20	=20	=20	=20	=20	=20
!LO:TX:b:i:t=Tenor&colon;	!	!	!	!	!	!	!	!	!	!	!	!	!	!	!
!	!LO:DY:a:t=piano	!	!	!LO:DY:a:t=piano	!	!LO:DY:a	!	!	!	!	!	!	!	!	!
!	!	!	!	!	!	!LO:DY:a:t=p.:rj	!	!	!	!	!	!	!	!	!
4G\	p	.	4b\	p	4gg\	p	2ryy	2ryy	4G/	Vir-	2ryy	2ryy	2ryy	2ryy	2ryy
8BB/L	.	.	16dd\LL	.	16bb\LL	.	.	.	8B\	-gam	.	.	.	.	.
.	.	.	16cc\	.	16aa\	.	.	.	.	.	.	.	.	.	.
8D/J	.	.	16b\	.	16gg\	.	.	.	8d\	vir-	.	.	.	.	.
.	.	.	16a\JJ	.	16ff#\JJ	.	.	.	.	.	.	.	.	.	.
!	!	!	!	!	!LO:LB:g=original	!	!	!	!	!	!	!	!	!	!
=21	=21	=21	=21	=21	=21	=21	=21	=21	=21	=21	=21	=21	=21	=21	=21
8G\L	.	.	8b/	.	8ff#\	.	2ryy	2ryy	8B\	-tu-	2ryy	2ryy	2ryy	2ryy	2ryy
8G\	.	.	4g/	.	4dd\	.	.	.	4G/	-tis	.	.	.	.	.
8B\	.	.	.	.	.	.	.	.	.	.	.	.	.	.	.
8d\J	.	.	8dd\	.	8dd\	.	.	.	8d\	vir-	.	.	.	.	.
=22	=22	=22	=22	=22	=22	=22	=22	=22	=22	=22	=22	=22	=22	=22	=22
16e\LL	.	.	16ee\LL	.	16ee\LL	.	2ryy	2ryy	16e\LL	-tu-	2ryy	2ryy	2ryy	2ryy	2ryy
16c\JJ	.	.	16cc\JJ	.	16cc\JJ	.	.	.	16c\JJ	.	.	.	.	.	.
4A\	.	.	4a/	.	4a/	.	.	.	4A\	.	.	.	.	.	.
8d\	.	.	8dd\	.	8dd\	.	.	.	8d\	-tis	.	.	.	.	.
!LO:LB:g=original	!	!	!	!	!	!	!	!	!	!	!	!	!	!	!
=23	=23	=23	=23	=23	=23	=23	=23	=23	=23	=23	=23	=23	=23	=23	=23
16B\LL|	.	.	16b/LL	.	16b/LL	.	2ryy	2ryy	16B\LL	tu-	2ryy	2ryy	2ryy	2ryy	2ryy
16A\J|	.	.	16a/J	.	16a/J	.	.	.	16A\JJ	.	.	.	.	.	.
8G\J|	.	.	8g/J	.	8g/J	.	.	.	8G/	-ae	.	.	.	.	.
8G\L	.	.	4r	.	4r	.	.	.	8r	.	.	.	.	.	.
8G\J	.	.	.	.	.	.	.	.	8A/	e-	.	.	.	.	.
=24	=24	=24	=24	=24	=24	=24	=24	=24	=24	=24	=24	=24	=24	=24	=24
8G\L	.	.	8r	.	8r	.	2ryy	2ryy	8B\	-mit-	2ryy	2ryy	2ryy	2ryy	2ryy
8G\	.	.	8b/L	.	8dd\L	.	.	.	4B\	.	.	.	.	.	.
8G\	.	.	8b/	.	8dd\	.	.	.	.	.	.	.	.	.	.
8G\J	.	.	8b/J	.	8dd\J	.	.	.	16c\LL	-tet	.	.	.	.	.
.	.	.	.	.	.	.	.	.	16d\JJ	.	.	.	.	.	.
!	!	!	!	!	!	!	!	!	!LO:LB:g=original	!	!	!	!	!	!
=25	=25	=25	=25	=25	=25	=25	=25	=25	=25	=25	=25	=25	=25	=25	=25
8r	.	.	8r	.	8r	.	2ryy	2ryy	8A\	e-	2ryy	2ryy	2ryy	2ryy	2ryy
8F#\L	.	X 6	8a/L	.	8dd\L	.	.	.	4A\	-mit-	.	.	.	.	.
8F#\	.	.	8a/	.	8dd\	.	.	.	.	.	.	.	.	.	.
8F#\J	.	.	8a/J	.	8dd\J	.	.	.	16c\LL	-tet	.	.	.	.	.
.	.	.	.	.	.	.	.	.	16d\JJ	.	.	.	.	.	.
=26	=26	=26	=26	=26	=26	=26	=26	=26	=26	=26	=26	=26	=26	=26	=26
8r	.	.	8r	.	8r	.	2ryy	2ryy	8G/	Do-	2ryy	2ryy	2ryy	2ryy	2ryy
8E\L	.	.	8g/L	.	8cc\L	.	.	.	16A\LL	-mi-	.	.	.	.	.
.	.	.	.	.	.	.	.	.	16B\JJ	.	.	.	.	.	.
8C#X\	.	.	8g/	.	8cc\	.	.	.	8A/	-nus	.	.	.	.	.
8AA\J	.	.	8g/J	.	8cc\J	.	.	.	8G/	ex	.	.	.	.	.
=27	=27	=27	=27	=27	=27	=27	=27	=27	=27	=27	=27	=27	=27	=27	=27
16D\LL	.	.	4f#/	.	4dd\	.	2ryy	2ryy	16F#/LL	Sy-	2ryy	2ryy	2ryy	2ryy	2ryy
16E\J	.	.	.	.	.	.	.	.	16G/JJ	.	.	.	.	.	.
8F#\J	.	.	.	.	.	.	.	.	8A/	-on	.	.	.	.	.
8C#X/L	.	.	4r	.	4r	.	.	.	8r	.	.	.	.	.	.
8AA/J	.	.	.	.	.	.	.	.	8e\	ex	.	.	.	.	.
=28	=28	=28	=28	=28	=28	=28	=28	=28	=28	=28	=28	=28	=28	=28	=28
!LO:TX:t=P:problem=mixed beam	!	!	!	!	!	!	!	!	!	!	!	!	!	!	!
!	!	!	!	!LO:DY:a:t=fort.	!	!	!	!	!	!	!	!	!	!	!
8D\L	.	.	4r	f	4r	.	2ryy	2ryy	8f#\	Sy-	2ryy	2ryy	2ryy	2ryy	2ryy
8G\	.	.	.	.	.	.	.	.	16e\	-on	.	.	.	.	.
.	.	.	.	.	.	.	.	.	16d\	ex	.	.	.	.	.
8A\	.	.	8r	.	8r	.	.	.	4c#X\	Sy-	.	.	.	.	.
!	!	!	!	!	!	!LO:DY:a:t=f.	!	!	!	!	!	!	!	!	!
8AA/J	.	.	8ee\	.	8ee\	f	.	.	.	.	.	.	.	.	.
=29	=29	=29	=29	=29	=29	=29	=29	=29	=29	=29	=29	=29	=29	=29	=29
8D/L	.	.	8.ff#t\L	.	8.ff#\L	.	2ryy	2ryy	4d\	-on	2ryy	2ryy	2ryy	2ryy	2ryy
8GG/	.	6 4	.	.	.	.	.	.	.	.	.	.	.	.	.
.	.	.	32ee\LL	.	32ee\LL	.	.	.	.	.	.	.	.	.	.
.	.	.	32ff#\JJJ	.	32ff#\JJJ	.	.	.	.	.	.	.	.	.	.
8E/	.	.	8.ggT\L	.	8.gg\L	.	.	.	4r	.	.	.	.	.	.
8AA/J	.	.	.	.	.	.	.	.	.	.	.	.	.	.	.
.	.	.	32ff#\LL	.	32ff#\LL	.	.	.	.	.	.	.	.	.	.
.	.	.	32gg\JJJ	.	32gg\JJJ	.	.	.	.	.	.	.	.	.	.
!	!	!	!LO:LB:g=original	!	!	!	!	!	!	!	!	!	!	!	!
=30	=30	=30	=30	=30	=30	=30	=30	=30	=30	=30	=30	=30	=30	=30	=30
8F#\L	.	X 6_	4aa\	.	4aa\	.	2ryy	2ryy	0r	.	2ryy	2ryy	2ryy	2ryy	2ryy
8AA\	.	.	.	.	.	.	.	.	.	.	.	.	.	.	.
8E\	.	X 3_	4gg\	.	4gg\	.	.	.	.	.	.	.	.	.	.
8AA\J	.	.	.	.	.	.	.	.	.	.	.	.	.	.	.
=31	=31	=31	=31	=31	=31	=31	=31	=31	=31	=31	=31	=31	=31	=31	=31
8D/L	.	X X	8.ff#t\L	.	8.ff#t\L	.	2ryy	2ryy	.	.	2ryy	2ryy	2ryy	2ryy	2ryy
8AA/	.	6 4	.	.	.	.	.	.	.	.	.	.	.	.	.
.	.	.	32ee\LL	.	32ee\LL	.	.	.	.	.	.	.	.	.	.
.	.	.	32ff#\JJJ	.	32ff#\JJJ	.	.	.	.	.	.	.	.	.	.
8E/	.	X 3_	8.ggT\L	.	8.ggT\L	.	.	.	.	.	.	.	.	.	.
8AA/J	.	.	.	.	.	.	.	.	.	.	.	.	.	.	.
.	.	X X	32ff#\LL	.	32ff#\LL	.	.	.	.	.	.	.	.	.	.
.	.	.	32gg\JJJ	.	32gg\JJJ	.	.	.	.	.	.	.	.	.	.
=32	=32	=32	=32	=32	=32	=32	=32	=32	=32	=32	=32	=32	=32	=32	=32
8F#\L	.	X 6	4aa\	.	4aa\	.	2ryy	2ryy	.	.	2ryy	2ryy	2ryy	2ryy	2ryy
8AA\	.	6 4	.	.	.	.	.	.	.	.	.	.	.	.	.
8E\	.	X 3_	4gg\	.	4gg\	.	.	.	.	.	.	.	.	.	.
8AA\J	.	.	.	.	.	.	.	.	.	.	.	.	.	.	.
=33	=33	=33	=33	=33	=33	=33	=33	=33	=33	=33	=33	=33	=33	=33	=33
8D\L	.	X X	16ff#\LL	.	16ff#\LL	.	2ryy	2ryy	.	.	2ryy	2ryy	2ryy	2ryy	2ryy
.	.	.	16aa\	.	16aa\	.	.	.	.	.	.	.	.	.	.
8E\	.	.	16bb\	.	16bb\	.	.	.	.	.	.	.	.	.	.
!	!	!	!	!	!LO:TX:a:t=P:problem=# above	!	!	!	!	!	!	!	!	!	!
.	.	.	16ccc#X\JJ	.	16ccc#X\JJ	.	.	.	.	.	.	.	.	.	.
8F#\	.	.	8ddd\L	.	8ddd\L	.	.	.	.	.	.	.	.	.	.
8G\J	.	.	8dd\J	.	8dd'\J	.	.	.	.	.	.	.	.	.	.
!	!	!	!	!	!LO:LB:g=original	!	!	!	!	!	!	!	!	!	!
=34	=34	=34	=34	=34	=34	=34	=34	=34	=34	=34	=34	=34	=34	=34	=34
4A\	.	X 4	4dd\	.	4a/	.	2ryy	2ryy	1r	.	2ryy	2ryy	2ryy	2ryy	2ryy
.	.	X 3	.	.	.	.	.	.	.	.	.	.	.	.	.
4AA/	.	.	4cc#X\	.	4eeT\	.	.	.	.	.	.	.	.	.	.
!LO:LB:g=original	!	!	!	!	!	!	!	!	!	!	!	!	!	!	!
=35	=35	=35	=35	=35	=35	=35	=35	=35	=35	=35	=35	=35	=35	=35	=35
8d\L	.	.	8dd\L	.	8dd\L	.	2ryy	2ryy	.	.	2ryy	2ryy	2ryy	2ryy	2ryy
8A\J	.	.	8a\J	.	8a\J	.	.	.	.	.	.	.	.	.	.
4D/	.	.	4d/	.	4d/	.	.	.	.	.	.	.	.	.	.
=36	=36	=36	=36	=36	=36	=36	=36	=36	=36	=36	=36	=36	=36	=36	=36
*	*	*	*	*	*	*	*	*	*2\right	*	*	*	*	*	*
!	!	!	!	!LO:DY:a:t=piano	!	!LO:DY:a:t=piano	!	!	!	!	!	!	!	!	!
8r	.	.	8r	p	8r	p	2ryy	2ryy	2d\	Vir-	2ryy	2ryy	2ryy	2ryy	2ryy
8D/L	.	.	8a/L	.	8ff#\L	.	.	.	.	.	.	.	.	.	.
8D/	.	.	8a/	.	8ff#\	.	.	.	.	.	.	.	.	.	.
8D/J	.	.	8a/J	.	8ff#\J	.	.	.	.	.	.	.	.	.	.
=37	=37	=37	=37	=37	=37	=37	=37	=37	=37	=37	=37	=37	=37	=37	=37
8r	.	.	8r	.	8r	.	2ryy	2ryy	2cn\	-gam	2ryy	2ryy	2ryy	2ryy	2ryy
8D/L	.	X 7-	8a/L	.	8ff#\L	.	.	.	.	.	.	.	.	.	.
8D/	.	.	8a/	.	8ff#\	.	.	.	.	.	.	.	.	.	.
8D/J	.	.	8a/J	.	8ff#\J	.	.	.	.	.	.	.	.	.	.
=38	=38	=38	=38	=38	=38	=38	=38	=38	=38	=38	=38	=38	=38	=38	=38
8r	.	.	8r	.	8r	.	2ryy	2ryy	16B\LL	vir-	2ryy	2ryy	2ryy	2ryy	2ryy
.	.	.	.	.	.	.	.	.	16d\JJ	.	.	.	.	.	.
8G\L	.	.	8b/L	.	8gg\L	.	.	.	4c\	-tu-	.	.	.	.	.
8G\	.	.	8b/	.	8gg\	.	.	.	.	.	.	.	.	.	.
*	*	*	*	*	*	*	*	*	*custos:B	*	*	*	*	*	*
8G\J	.	.	8b/J	.	8gg\J	.	.	.	8B\	-tis	.	.	.	.	.
!	!	!	!	!	!	!	!	!	!LO:LB:g=original	!	!	!	!	!	!
=39	=39	=39	=39	=39	=39	=39	=39	=39	=39	=39	=39	=39	=39	=39	=39
8d\L	.	6 4	8b/L	.	8gg\L	.	2ryy	2ryy	8B\	tu-	2ryy	2ryy	2ryy	2ryy	2ryy
8A\	.	X 6	8a/J	.	8ff#\J	.	.	.	8A\	-ae	.	.	.	.	.
8F#\	.	X 6	4r	.	4r	.	.	.	4r	.	.	.	.	.	.
8D\J	.	.	.	.	.	.	.	.	.	.	.	.	.	.	.
=40	=40	=40	=40	=40	=40	=40	=40	=40	=40	=40	=40	=40	=40	=40	=40
8r	.	.	8r	.	8r	.	2ryy	2ryy	2d\	e-	2ryy	2ryy	2ryy	2ryy	2ryy
8D/L	.	.	8a/L	.	8ff#\L	.	.	.	.	.	.	.	.	.	.
8D/	.	.	8a/	.	8ff#\	.	.	.	.	.	.	.	.	.	.
8D/J	.	.	8a/J	.	8ff#\J	.	.	.	.	.	.	.	.	.	.
=41	=41	=41	=41	=41	=41	=41	=41	=41	=41	=41	=41	=41	=41	=41	=41
8r	.	.	8r	.	8r	.	2ryy	2ryy	4.c\	-mit-	2ryy	2ryy	2ryy	2ryy	2ryy
8D/L	.	X 7-	8a/L	.	8ff#\L	.	.	.	.	.	.	.	.	.	.
8D/	.	.	8a/	.	8ff#\	.	.	.	.	.	.	.	.	.	.
8D/J	.	.	8a/J	.	8ff#\J	.	.	.	8B\	-tet	.	.	.	.	.
!	!	!	!LO:LB:g=original	!	!	!	!	!	!	!	!	!	!	!	!
=42	=42	=42	=42	=42	=42	=42	=42	=42	=42	=42	=42	=42	=42	=42	=42
8r	.	.	8r	.	8r	.	2ryy	2ryy	16B\	Do-	2ryy	2ryy	2ryy	2ryy	2ryy
.	.	.	.	.	.	.	.	.	16d\	-mi-	.	.	.	.	.
8G\L	.	.	8b/L	.	8gg\L	.	.	.	4c\	-nus	.	.	.	.	.
8G\	.	.	8b/	.	8gg\	.	.	.	.	.	.	.	.	.	.
8G\J	.	.	8b/J	.	8gg\J	.	.	.	8B\	ex	.	.	.	.	.
=43	=43	=43	=43	=43	=43	=43	=43	=43	=43	=43	=43	=43	=43	=43	=43
8d\L	.	6 4	8b/L	.	8gg\L	.	2ryy	2ryy	8B\	Sy-	2ryy	2ryy	2ryy	2ryy	2ryy
8A\	.	6 3	8a/J	.	8ff#\J	.	.	.	8A\	-on	.	.	.	.	.
8F#\	.	X 6	4r	.	4r	.	.	.	4r	.	.	.	.	.	.
8D\J	.	.	.	.	.	.	.	.	.	.	.	.	.	.	.
=44	=44	=44	=44	=44	=44	=44	=44	=44	=44	=44	=44	=44	=44	=44	=44
4G\	.	.	4g/	.	4g/	.	2ryy	2ryy	4G/	Vir-	2ryy	2ryy	2ryy	2ryy	2ryy
8BB/L	.	X 6	8b\L	.	8b\L	.	.	.	8B\	-ga(m)	.	.	.	.	.
8D/J	.	.	8dd\J	.	8dd\J	.	.	.	8d\	vir-	.	.	.	.	.
=45	=45	=45	=45	=45	=45	=45	=45	=45	=45	=45	=45	=45	=45	=45	=45
8G\L	.	.	16b\LL	.	16b/LL	.	2ryy	2ryy	8B\	-tu-	2ryy	2ryy	2ryy	2ryy	2ryy
.	.	.	16g\	.	16g/	.	.	.	.	.	.	.	.	.	.
8A\	.	.	16b\	.	16b/	.	.	.	8G/	-tis	.	.	.	.	.
.	.	.	16dd\JJ	.	16dd/JJ	.	.	.	.	.	.	.	.	.	.
8B\	.	.	8gg\L	.	8gg\L	.	.	.	8r	.	.	.	.	.	.
8G\J	.	.	8dd\J	.	8dd\J	.	.	.	8d\	vir-	.	.	.	.	.
=46	=46	=46	=46	=46	=46	=46	=46	=46	=46	=46	=46	=46	=46	=46	=46
16e'\LL	.	.	16ee\LL	.	16ee\LL	.	2ryy	2ryy	16e\LL	-tu-	2ryy	2ryy	2ryy	2ryy	2ryy
16c'\JJ	.	.	16cc\JJ	.	16cc\JJ	.	.	.	16c\JJ	.	.	.	.	.	.
4A'\	.	.	4a/	.	4a/	.	.	.	4A\	.	.	.	.	.	.
8d'\	.	.	8dd\	.	8dd\	.	.	.	8d\	-tis	.	.	.	.	.
!LO:LB:g=original	!	!	!	!	!	!	!	!	!	!	!	!	!	!	!
=47	=47	=47	=47	=47	=47	=47	=47	=47	=47	=47	=47	=47	=47	=47	=47
8B\L	.	X 6_	8b/L	.	8b/L	.	2ryy	2ryy	8B\	tu-	2ryy	2ryy	2ryy	2ryy	2ryy
8G\	.	.	8g/J	.	8g/J	.	.	.	8G/	-ae	.	.	.	.	.
!	!	!	!	!	!LO:LB:g=original	!	!	!	!	!	!	!	!	!	!
8B\	.	.	8dd\L	.	8dd\L	.	.	.	8r	.	.	.	.	.	.
8G\J	.	X X	8dd\J	.	8dd\J	.	.	.	8d\	e-	.	.	.	.	.
!	!	!	!	!	!	!	!	!	!LO:LB:g=original	!	!	!	!	!	!
=48	=48	=48	=48	=48	=48	=48	=48	=48	=48	=48	=48	=48	=48	=48	=48
!LO:TX:t=P:problem=mixed beam	!	!	!	!	!	!	!	!	!	!	!	!	!	!	!
8c\L	.	X 5	8ee\L	.	8ee\L	.	2ryy	2ryy	8e\	-mit-	2ryy	2ryy	2ryy	2ryy	2ryy
8C/	.	X 6_	8ee\	.	8aa\	.	.	.	4c\	.	.	.	.	.	.
8C/	.	.	8ee\	.	8aa\	.	.	.	.	.	.	.	.	.	.
8C/J	.	.	8ee\J	.	8aa\J	.	.	.	16B\LL	.	.	.	.	.	.
.	.	X X	.	.	.	.	.	.	16A\JJ	.	.	.	.	.	.
=49	=49	=49	=49	=49	=49	=49	=49	=49	=49	=49	=49	=49	=49	=49	=49
8BB/L	.	X 7	8dd\L	.	8aa\L	.	2ryy	2ryy	8d\	.	2ryy	2ryy	2ryy	2ryy	2ryy
8BB/	.	X 6_	8dd\	.	8gg\	.	.	.	4B\	.	.	.	.	.	.
8BB/	.	.	8dd\	.	8gg\	.	.	.	.	.	.	.	.	.	.
8BB/J	.	.	8dd\J	.	8gg\J	.	.	.	16A/LL	.	.	.	.	.	.
.	.	X X	.	.	.	.	.	.	16G/JJ	.	.	.	.	.	.
=50	=50	=50	=50	=50	=50	=50	=50	=50	=50	=50	=50	=50	=50	=50	=50
8AA/L	.	X 7	8cc\L	.	8gg\L	.	2ryy	2ryy	8c\	.	2ryy	2ryy	2ryy	2ryy	2ryy
8AA/	.	X 6_	8cc\	.	8ff#\	.	.	.	4A/	.	.	.	.	.	.
8AA/	.	.	8cc\	.	8ff#\	.	.	.	.	.	.	.	.	.	.
8AA/J	.	.	8cc\J	.	8ff#\J	.	.	.	16G/LL	.	.	.	.	.	.
.	.	X X	.	.	.	.	.	.	16F#/JJ	.	.	.	.	.	.
=51	=51	=51	=51	=51	=51	=51	=51	=51	=51	=51	=51	=51	=51	=51	=51
8G\L	.	.	8.bt</L	.	8.bt/L	.	2ryy	2ryy	8.Bt\L	.	2ryy	2ryy	2ryy	2ryy	2ryy
8D\	.	6 4	.	.	.	.	.	.	.	.	.	.	.	.	.
.	.	.	32a/LL	.	32a/LL	.	.	.	32A\LL	.	.	.	.	.	.
.	.	.	32b/JJJ	.	32b/JJJ	.	.	.	32B\JJJ	.	.	.	.	.	.
8A\	.	6 3_	8.ccT\L	.	8.ccT\L	.	.	.	8.cT\L	.	.	.	.	.	.
8D\J	.	.	.	.	.	.	.	.	.	.	.	.	.	.	.
.	.	X X	32b\LL	.	32b\LL	.	.	.	32B\LL	.	.	.	.	.	.
.	.	.	32cc\JJJ	.	32cc\JJJ	.	.	.	32c\JJJ	.	.	.	.	.	.
=52	=52	=52	=52	=52	=52	=52	=52	=52	=52	=52	=52	=52	=52	=52	=52
8B\L	.	X 6	8dd\L	.	8dd\L	.	2ryy	2ryy	4d\	.	2ryy	2ryy	2ryy	2ryy	2ryy
8D\	.	.	8gg\	.	8gg\	.	.	.	.	.	.	.	.	.	.
8A\	.	8_ 3_	8cc\	.	8cc\	.	.	.	4c\	.	.	.	.	.	.
8D\J	.	.	8aa\J	.	8aa\J	.	.	.	.	.	.	.	.	.	.
!	!	!	!LO:LB:g=original	!	!	!	!	!	!	!	!	!	!	!	!
=53	=53	=53	=53	=53	=53	=53	=53	=53	=53	=53	=53	=53	=53	=53	=53
8G\L	.	X X	8.bt\L	.	8.bt\L	.	2ryy	2ryy	8.Bt\L	.	2ryy	2ryy	2ryy	2ryy	2ryy
8D\	.	6 4	.	.	.	.	.	.	.	.	.	.	.	.	.
.	.	.	32a\LL	.	32a\LL	.	.	.	32A\LL	.	.	.	.	.	.
.	.	.	32b\JJJ	.	32b\JJJ	.	.	.	32B\JJJ	.	.	.	.	.	.
8A\	.	8_ 3_	8.ccT\L	.	8.ccT\L	.	.	.	8.cT\L	.	.	.	.	.	.
8C\J	.	.	.	.	.	.	.	.	.	.	.	.	.	.	.
.	.	X X	32b\LL	.	32b\LL	.	.	.	32B\LL	.	.	.	.	.	.
.	.	.	32cc\JJJ	.	32cc\JJJ	.	.	.	32c\JJJ	.	.	.	.	.	.
=54	=54	=54	=54	=54	=54	=54	=54	=54	=54	=54	=54	=54	=54	=54	=54
8B\L	.	.	8dd\L	.	8dd\L	.	2ryy	2ryy	4d\	.	2ryy	2ryy	2ryy	2ryy	2ryy
8D\	.	.	8gg\	.	8gg\	.	.	.	.	.	.	.	.	.	.
!LO:TX:i:a:t=a	!	!	!	!	!	!	!	!	!	!	!	!	!	!	!
8A\	.	.	8cc\	.	8cc\	.	.	.	4c\	-tet	.	.	.	.	.
8D\J	.	.	8aa\J	.	8aa\J	.	.	.	.	.	.	.	.	.	.
=55	=55	=55	=55	=55	=55	=55	=55	=55	=55	=55	=55	=55	=55	=55	=55
8G\L	.	.	8b\L	.	16b\LL	.	2ryy	2ryy	8B\	Do-	2ryy	2ryy	2ryy	2ryy	2ryy
.	.	.	.	.	16dd\	.	.	.	.	.	.	.	.	.	.
8E\J	.	.	8dd\	.	16ee\	.	.	.	8d\	-mi-	.	.	.	.	.
.	.	.	.	.	16ff#\JJ	.	.	.	.	.	.	.	.	.	.
!	!	!	!	!	!LO:TX:t=P:problem=mixed beam	!	!	!	!	!	!	!	!	!	!
8BB/L	.	.	8b\	.	8gg\L	.	.	.	8B\	-nus	.	.	.	.	.
8C/J	.	.	8g\J	.	8g/J	.	.	.	8G/	ex	.	.	.	.	.
=56	=56	=56	=56	=56	=56	=56	=56	=56	=56	=56	=56	=56	=56	=56	=56
4D/	.	X 4	4g/	.	4d/	.	2ryy	2ryy	4D/	Sy-	2ryy	2ryy	2ryy	2ryy	2ryy
4DD/	.	X 3	4f#/	.	4a/	.	.	.	4A/	.	.	.	.	.	.
!	!	!	!	!	!	!	!	!	!LO:LB:g=original	!	!	!	!	!	!
=57	=57	=57	=57	=57	=57	=57	=57	=57	=57	=57	=57	=57	=57	=57	=57
8G\L	.	.	8ggL 8b 8d 8G/	.	8ggL 8b 8d 8G/	.	2ryy	2ryy	4G/	-on	2ryy	2ryy	2ryy	2ryy	2ryy
8D\J|	.	.	8gg 8b 8d 8G/	.	8gg 8b 8d 8G/	.	.	.	.	.	.	.	.	.	.
8BB/L|	.	.	8ggJ 8b 8d 8G/	.	8ggJ 8b 8d 8G/	.	.	.	4r	.	.	.	.	.	.
8GG/J|	.	.	8r	.	8r	.	.	.	.	.	.	.	.	.	.
=58	=58	=58	=58	=58	=58	=58	=58	=58	=58	=58	=58	=58	=58	=58	=58
!LO:TX:t=P:problem=mixed beam	!	!	!	!	!	!	!	!	!LO:TX:t=P:problem=mixed beam	!	!	!	!	!	!
8C\L	.	.	8e/L	.	8e/L	.	2ryy	2ryy	8E/L	ex	2ryy	2ryy	2ryy	2ryy	2ryy
8E\	.	.	8a/J	.	8cc/J	.	.	.	8c\J	.	.	.	.	.	.
8D\	.	.	4f#/	.	4a/	.	.	.	4A/	Sy-	.	.	.	.	.
8DD/J	.	.	.	.	.	.	.	.	.	.	.	.	.	.	.
!LO:LB:g=original	!	!	!	!	!	!	!	!	!	!	!	!	!	!	!
=59	=59	=59	=59	=59	=59	=59	=59	=59	=59	=59	=59	=59	=59	=59	=59
!	!	!	!LO:TX:t=P:problem=mixed beam	!	!LO:TX:t=P:problem=mixed beam	!	!	!	!	!	!	!	!	!	!
8GG/L	.	.	8g/L	.	8g/L	.	2ryy	2ryy	4G/	-on	2ryy	2ryy	2ryy	2ryy	2ryy
8D/J	.	.	8d/	.	8d/	.	.	.	.	.	.	.	.	.	.
4GG/	.	.	8G/	.	8G/	.	.	.	4r	.	.	.	.	.	.
!	!	!	!	!LO:DY:a:t=fort.	!	!LO:DY:a:t=f.	!	!	!	!	!	!	!	!	!
.	.	.	8dd\J	f	8dd\J	f	.	.	.	.	.	.	.	.	.
!	!	!	!	!	!LO:LB:g=original	!	!	!	!	!	!	!	!	!	!
=60	=60	=60	=60	=60	=60	=60	=60	=60	=60	=60	=60	=60	=60	=60	=60
!	!LO:DY:a:t=f.:rj	!	!	!	!	!	!	!	!	!	!	!	!	!	!
8G\L	f	.	4b\	.	4gg\	.	2ryy	2ryy	0r	.	2ryy	2ryy	2ryy	2ryy	2ryy
8B\	.	.	.	.	.	.	.	.	.	.	.	.	.	.	.
8c\	.	.	16dd\LL	.	16bb\LL	.	.	.	.	.	.	.	.	.	.
.	.	.	16cc\	.	16aa\	.	.	.	.	.	.	.	.	.	.
8d\J	.	.	16b\	.	16gg\	.	.	.	.	.	.	.	.	.	.
.	.	.	16a\JJ	.	16ff#\JJ	.	.	.	.	.	.	.	.	.	.
=61	=61	=61	=61	=61	=61	=61	=61	=61	=61	=61	=61	=61	=61	=61	=61
8G\L	.	.	8b/L	.	8gg\	.	2ryy	2ryy	.	.	2ryy	2ryy	2ryy	2ryy	2ryy
8G\	.	.	16g/L	.	4dd\	.	.	.	.	.	.	.	.	.	.
.	.	.	16a/JJ	.	.	.	.	.	.	.	.	.	.	.	.
8c\	.	.	8b\L	.	.	.	.	.	.	.	.	.	.	.	.
8d\J	.	.	8dd\J	.	8dd\	.	.	.	.	.	.	.	.	.	.
=62	=62	=62	=62	=62	=62	=62	=62	=62	=62	=62	=62	=62	=62	=62	=62
16e\LL	.	X 6	16ee\LL	.	16ee\LL	.	2ryy	2ryy	.	.	2ryy	2ryy	2ryy	2ryy	2ryy
16c\JJ	.	.	16cc\JJ	.	16cc\JJ	.	.	.	.	.	.	.	.	.	.
4A\	.	.	4a/	.	4a/	.	.	.	.	.	.	.	.	.	.
8d\	.	.	8dd\	.	8dd\	.	.	.	.	.	.	.	.	.	.
=63	=63	=63	=63	=63	=63	=63	=63	=63	=63	=63	=63	=63	=63	=63	=63
16B\LL	.	X 6	16b/LL	.	16b/LL	.	2ryy	2ryy	.	.	2ryy	2ryy	2ryy	2ryy	2ryy
16A\J	.	.	16a/J	.	16a/J	.	.	.	.	.	.	.	.	.	.
8G\J	.	.	8g/J	.	8g/J	.	.	.	.	.	.	.	.	.	.
8BB/L	.	.	8r	.	8r	.	.	.	.	.	.	.	.	.	.
8GG/J	.	.	8dd\	.	8dd\	.	.	.	.	.	.	.	.	.	.
=64	=64	=64	=64	=64	=64	=64	=64	=64	=64	=64	=64	=64	=64	=64	=64
8C/L	.	.	16cc\LL	.	16ee\LL	.	2ryy	2ryy	0r	.	2ryy	2ryy	2ryy	2ryy	2ryy
.	.	.	16g\	.	16cc\	.	.	.	.	.	.	.	.	.	.
8C/	.	.	16cc\	.	16g\	.	.	.	.	.	.	.	.	.	.
.	.	.	16ee\JJ	.	16e\JJ	.	.	.	.	.	.	.	.	.	.
!	!	!	!	!	!LO:TX:t=P:problem=mixed beam	!	!	!	!	!	!	!	!	!	!
8C/	.	.	8ee\L	.	8c/L	.	.	.	.	.	.	.	.	.	.
8C/J	.	.	8cc\J	.	8ee\J	.	.	.	.	.	.	.	.	.	.
!	!	!	!LO:LB:g=original	!	!	!	!	!	!	!	!	!	!	!	!
=65	=65	=65	=65	=65	=65	=65	=65	=65	=65	=65	=65	=65	=65	=65	=65
8GG/L	.	.	16b\LL	.	16dd\LL	.	2ryy	2ryy	.	.	2ryy	2ryy	2ryy	2ryy	2ryy
.	.	.	16a\J	.	16cc\J	.	.	.	.	.	.	.	.	.	.
8GG/	.	.	8b\J	.	8dd\J	.	.	.	.	.	.	.	.	.	.
8GG/	.	.	8r	.	8r	.	.	.	.	.	.	.	.	.	.
8GG/J	.	.	8b\	.	8dd\	.	.	.	.	.	.	.	.	.	.
=66	=66	=66	=66	=66	=66	=66	=66	=66	=66	=66	=66	=66	=66	=66	=66
8D/L	.	.	16a/LL	.	16cc/LL	.	2ryy	2ryy	.	.	2ryy	2ryy	2ryy	2ryy	2ryy
.	.	.	16f#/	.	16a/	.	.	.	.	.	.	.	.	.	.
8D/	.	.	16d/	.	16f#/	.	.	.	.	.	.	.	.	.	.
.	.	.	16a/JJ	.	16d/JJ	.	.	.	.	.	.	.	.	.	.
8D/	.	.	8cc\L	.	8ff#\L	.	.	.	.	.	.	.	.	.	.
8D/J	.	.	8a\J	.	8aa\J	.	.	.	.	.	.	.	.	.	.
=67	=67	=67	=67	=67	=67	=67	=67	=67	=67	=67	=67	=67	=67	=67	=67
8G\L	.	.	16g/LL	.	16b/LL	.	2ryy	2ryy	.	.	2ryy	2ryy	2ryy	2ryy	2ryy
.	.	.	16f#/J	.	16a/J	.	.	.	.	.	.	.	.	.	.
8G\	.	.	8.g/J	.	8.b/J	.	.	.	.	.	.	.	.	.	.
8G\	.	.	.	.	.	.	.	.	.	.	.	.	.	.	.
.	.	.	16g/LL	.	16g\LL	.	.	.	.	.	.	.	.	.	.
8G\J	.	.	16a/	.	16b\	.	.	.	.	.	.	.	.	.	.
.	.	.	16g/JJ	.	16dd\JJ	.	.	.	.	.	.	.	.	.	.
=68	=68	=68	=68	=68	=68	=68	=68	=68	=68	=68	=68	=68	=68	=68	=68
8C/L	.	.	16cc\LL	.	16cc\LL	.	2ryy	2ryy	0r	.	2ryy	2ryy	2ryy	2ryy	2ryy
.	.	.	16b\	.	16b\	.	.	.	.	.	.	.	.	.	.
8C/	.	.	16cc\	.	16cc\	.	.	.	.	.	.	.	.	.	.
.	.	.	16dd\JJ	.	16dd\JJ	.	.	.	.	.	.	.	.	.	.
!	!	!	!LO:TX:t=P:problem=mixed beam	!	!LO:TX:t=P:problem=mixed beam	!	!	!	!	!	!	!	!	!	!
8C/	.	.	8ee\L	.	8ee\L	.	.	.	.	.	.	.	.	.	.
8C/J	.	.	8e/J	.	8g/J	.	.	.	.	.	.	.	.	.	.
!	!	!	!	!	!LO:LB:g=original	!	!	!	!	!	!	!	!	!	!
=69	=69	=69	=69	=69	=69	=69	=69	=69	=69	=69	=69	=69	=69	=69	=69
8D/L	.	.	16d/LL	.	16f#/LL	.	2ryy	2ryy	.	.	2ryy	2ryy	2ryy	2ryy	2ryy
.	.	.	16c/J	.	16e/J	.	.	.	.	.	.	.	.	.	.
8D/	.	.	8d/J	.	8d/J	.	.	.	.	.	.	.	.	.	.
8D/	.	.	16r	.	16r	.	.	.	.	.	.	.	.	.	.
.	.	.	16d/LL	.	16d/LL	.	.	.	.	.	.	.	.	.	.
8D/J	.	.	16f#/	.	16f#/	.	.	.	.	.	.	.	.	.	.
.	.	.	16a/JJ	.	16a/JJ	.	.	.	.	.	.	.	.	.	.
=70	=70	=70	=70	=70	=70	=70	=70	=70	=70	=70	=70	=70	=70	=70	=70
8G\L	.	.	8.bt\L	.	8.bt\L	.	2ryy	2ryy	.	.	2ryy	2ryy	2ryy	2ryy	2ryy
8D\	.	6 4	.	.	.	.	.	.	.	.	.	.	.	.	.
.	.	.	32a\LL	.	32a\LL	.	.	.	.	.	.	.	.	.	.
.	.	.	32b\JJJ	.	32b\JJJ	.	.	.	.	.	.	.	.	.	.
8A\	.	8_ 3_	8.ccT\L	.	8.ccT\L	.	.	.	.	.	.	.	.	.	.
8D\J	.	.	.	.	.	.	.	.	.	.	.	.	.	.	.
.	.	X X	32b\LL	.	32b\LL	.	.	.	.	.	.	.	.	.	.
.	.	.	32cc\JJJ	.	32cc\JJJ	.	.	.	.	.	.	.	.	.	.
=71	=71	=71	=71	=71	=71	=71	=71	=71	=71	=71	=71	=71	=71	=71	=71
8B\L	.	6_	8dd\L	.	8dd\L	.	2ryy	2ryy	.	.	2ryy	2ryy	2ryy	2ryy	2ryy
8D\	.	.	8gg\	.	8gg\	.	.	.	.	.	.	.	.	.	.
8A\	.	X X	8cc\	.	8cc\	.	.	.	.	.	.	.	.	.	.
8D\J	.	.	8aa\J	.	8aa\J	.	.	.	.	.	.	.	.	.	.
!LO:LB:g=original	!	!	!	!	!	!	!	!	!	!	!	!	!	!	!
=72	=72	=72	=72	=72	=72	=72	=72	=72	=72	=72	=72	=72	=72	=72	=72
!	!	!	!LO:TX:t=P:problem=takty 72-73 zapisane jako repetycja taktóe 70-71	!	!	!	!	!	!	!	!	!	!	!	!
8G\L	.	.	8.bt\L	.	8.bt\L	.	2ryy	2ryy	0r	.	2ryy	2ryy	2ryy	2ryy	2ryy
8D\	.	.	.	.	.	.	.	.	.	.	.	.	.	.	.
.	.	.	32a\LL	.	32a\LL	.	.	.	.	.	.	.	.	.	.
.	.	.	32b\JJJ	.	32b\JJJ	.	.	.	.	.	.	.	.	.	.
8A\	.	.	8.ccT\L	.	8.ccT\L	.	.	.	.	.	.	.	.	.	.
8D\J	.	.	.	.	.	.	.	.	.	.	.	.	.	.	.
.	.	.	32b\LL	.	32b\LL	.	.	.	.	.	.	.	.	.	.
.	.	.	32cc\JJJ	.	32cc\JJJ	.	.	.	.	.	.	.	.	.	.
=73	=73	=73	=73	=73	=73	=73	=73	=73	=73	=73	=73	=73	=73	=73	=73
8B\L	.	.	8dd\L	.	8dd\L	.	2ryy	2ryy	.	.	2ryy	2ryy	2ryy	2ryy	2ryy
8D\	.	.	8gg\	.	8gg\	.	.	.	.	.	.	.	.	.	.
8A\	.	.	8cc\	.	8cc\	.	.	.	.	.	.	.	.	.	.
8D\J	.	.	8aa\J	.	8aa\J	.	.	.	.	.	.	.	.	.	.
=74	=74	=74	=74	=74	=74	=74	=74	=74	=74	=74	=74	=74	=74	=74	=74
8G\L	.	.	16b\LL	.	16b\LL	.	2ryy	2ryy	.	.	2ryy	2ryy	2ryy	2ryy	2ryy
.	.	.	16dd\	.	16dd\	.	.	.	.	.	.	.	.	.	.
8E\J	.	.	16ee\	.	16ee\	.	.	.	.	.	.	.	.	.	.
.	.	.	16ff#\JJ	.	16ff#\JJ	.	.	.	.	.	.	.	.	.	.
!	!	!	!LO:TX:t=P:problem=mixed beam	!	!LO:TX:t=P:problem=mixed beam	!	!	!	!	!	!	!	!	!	!
8BB/L	.	.	8gg\L	.	8gg\L	.	.	.	.	.	.	.	.	.	.
8C/J	.	.	8g/J	.	8g/J	.	.	.	.	.	.	.	.	.	.
=75	=75	=75	=75	=75	=75	=75	=75	=75	=75	=75	=75	=75	=75	=75	=75
8D/L	.	.	4d/	.	4d/	.	2ryy	2ryy	.	.	2ryy	2ryy	2ryy	2ryy	2ryy
8D/	.	.	.	.	.	.	.	.	.	.	.	.	.	.	.
8DD/	.	X 7	4c/	.	4a/	.	.	.	.	.	.	.	.	.	.
8DD/J	.	.	.	.	.	.	.	.	.	.	.	.	.	.	.
=76	=76	=76	=76	=76	=76	=76	=76	=76	=76	=76	=76	=76	=76	=76	=76
8G\L	.	.	8ggL 8b 8d 8G/	.	8ggL 8b 8d 8G/	.	2ryy	2ryy	1r	.	2ryy	2ryy	2ryy	2ryy	2ryy
8D\J	.	.	8gg 8b 8d 8G/	.	8gg 8b 8d 8G/	.	.	.	.	.	.	.	.	.	.
8BB/L	.	.	8ggJ 8b 8d 8G/	.	8ggJ 8b 8d 8G/	.	.	.	.	.	.	.	.	.	.
8GG/J	.	.	8r	.	8r	.	.	.	.	.	.	.	.	.	.
=77	=77	=77	=77	=77	=77	=77	=77	=77	=77	=77	=77	=77	=77	=77	=77
!LO:TX:t=P:problem=mixed beam	!	!	!	!	!	!	!	!	!	!	!	!	!	!	!
8C\L	.	.	8e/L	.	8g/L	.	2ryy	2ryy	.	.	2ryy	2ryy	2ryy	2ryy	2ryy
8E\	.	.	8a/J	.	8cc/J	.	.	.	.	.	.	.	.	.	.
.	.	.	8qqg/	.	.	.	.	.	.	.	.	.	.	.	.
8D\	.	.	4f#/	.	4a/	.	.	.	.	.	.	.	.	.	.
8DD/J	.	.	.	.	.	.	.	.	.	.	.	.	.	.	.
=78	=78	=78	=78	=78	=78	=78	=78	=78	=78	=78	=78	=78	=78	=78	=78
8GG/L	.	.	8g/L	.	8g/L	.	2ryy	2ryy	2r	.	2ryy	2ryy	2ryy	2ryy	2ryy
8D/J	.	.	8d/J	.	8d/J	.	.	.	.	.	.	.	.	.	.
4GG/	.	.	4G/	.	4G/	.	.	.	.	.	.	.	.	.	.
==	==	==	==	==	==	==	==	==	==	==	==	==	==	==	==
*-	*-	*-	*-	*-	*-	*-	*-	*-	*-	*-	*-	*-	*-	*-	*-
!!!system-decoration: [(s1)][(g1)][(g2)][(g3)][(s11)]
!!!RDF**kern: | = vertical stroke
!!!RDF**kern: > = above
!!!RDF**kern: < = below
!!!ENC: Mateusz Solarz
!!!END: 2020-07-27
!!!EED: Antoni Szymański
!!!EEV: 2022-03-03
